X: 18
T:Green Grows the Rushes-O (#218)
M:4/4
L:1/8
S:Capt. F. O'Neill
R:Reel
K:G
D|G2 GA BG G2|ABcd eAAB|c2 "tr"ed B2 "tr"dB|AcBA GE E:|
|:d|gfga "tr"ge d2|eaab agef|1gfge dcBG|AcBA GE E:|
2gfge dBgB|AcBA GE E||
% 
% [SEE NOTES TO TUNE #217]

